X: 17
T: GATHERING PEASCODS
B: "FIFTY OLD ENGLISH FOLK DANCE AIRS", Edgar H. Hunt ed., Schott & Co. Ltd. pub., London 1939
Z: 2004-2014 John Chambers <jc:trillian.mit.edu>
M: 2/2
L: 1/4
K: G
|:\
d2 dd | B>c dd |\
ed cB | A3 B |\
AG GF |[1 G4 :|[2 G3 \
|: G | FD FG |
A2 BA |\
G/A/B AG | F3 F |\
ED E>D | D3 :|\
|: d |\
BG G(A/B/) | c3 c |
BG G(A/B/) | c3 d |\
BG G(A/B/) | (c>d) e(d/c/) |\
B(cB) (A>G) |[1 G3 :|[2 G4 |]

%%sep 1 1 500
%%sep 1 1 500
